src/public/favicon.svg

<svg width="32" height="32" viewBox="0 0 32 32" fill="none" xmlns="http://www.w3.org/2000/svg">
<rect width="32" height="32" rx="8" fill="#1B414B"/>
<path d="M7.36927 10.8182H9.1143L11.7741 15.4467H11.8835L14.5433 10.8182H16.2883L12.5944 17.0028V21H11.0632V17.0028L7.36927 10.8182ZM17.1398 21H15.5091L19.1732 10.8182H20.948L24.6121 21H22.9814L20.1029 12.6676H20.0233L17.1398 21ZM17.4132 17.0128H22.703V18.3054H17.4132V17.0128Z" fill="#FBFBFB"/>
</svg>

<symbol id="icon-favicon" viewBox="0 0 32 32">
<path fill="#1b414b" style="fill: var(--color1, #1b414b)" d="M8 0h16c4.418 0 8 3.582 8 8v16c0 4.418-3.582 8-8 8h-16c-4.418 0-8-3.582-8-8v-16c0-4.418 3.582-8 8-8z"></path>
<path fill="#fbfbfb" style="fill: var(--color2, #fbfbfb)" d="M7.369 10.818h1.745l2.66 4.628h0.109l2.66-4.628h1.745l-3.694 6.185v3.997h-1.531v-3.997l-3.694-6.185zM17.14 21h-1.631l3.664-10.182h1.775l3.664 10.182h-1.631l-2.878-8.332h-0.080l-2.884 8.332zM17.413 17.013h5.29v1.293h-5.29v-1.293z"></path>
</symbol>
